src/images/svg/symbols/avalanche.svg

<svg width="32" height="32" viewBox="0 0 32 32" fill="none" xmlns="http://www.w3.org/2000/svg">
<circle cx="16" cy="16" r="16" fill="#E84142"/>
<path d="M8.52756 23.3686H11.6286C12.3587 23.3686 12.7238 23.3686 13.0496 23.2784C13.4068 23.1722 13.7326 22.9839 14.0034 22.7247C14.3467 22.3977 14.5644 21.9414 14.7963 21.5354L18.8183 14.4258C19.1755 13.8016 19.3521 13.4876 19.4306 13.1579C19.517 12.8007 19.517 12.4238 19.4306 12.0666C19.3527 11.7394 19.1743 11.4276 18.8224 10.8128L17.2403 8.05101C16.9145 7.4779 16.7496 7.19135 16.5416 7.08537C16.3178 6.97154 16.0509 6.97154 15.8272 7.08537C15.6191 7.19135 15.4543 7.4779 15.1285 8.05101L7.47165 21.5472C7.14977 22.1124 6.98882 22.3952 7.0006 22.6266C7.01631 22.8779 7.14584 23.1056 7.35782 23.243C7.55407 23.3686 7.87594 23.3686 8.52756 23.3686Z" fill="white"/>
<path d="M23.9031 23.3686H19.4597C18.8042 23.3686 18.4744 23.3686 18.2821 23.243C18.0701 23.1056 17.9406 22.8741 17.9249 22.6228C17.9132 22.3931 18.0754 22.113 18.4 21.5527L20.6255 17.7318C20.9513 17.1705 21.1162 16.8918 21.3203 16.7858C21.5439 16.672 21.8071 16.672 22.0308 16.7858C22.2334 16.889 22.3912 17.1559 22.7037 17.6843L24.9873 21.5908C25.2958 22.1232 25.4533 22.395 25.442 22.619C25.4301 22.8701 25.2967 23.1018 25.0848 23.2392C24.8884 23.3686 24.5586 23.3686 23.9031 23.3686Z" fill="white"/>
</svg>

<svg width="32" height="32" fill="none" xmlns="http://www.w3.org/2000/svg"><circle cx="16" cy="16" r="16" fill="#E84142"/><path d="M8.528 23.369h3.1c.73 0 1.096 0 1.422-.09a2.34 2.34 0 0 0 .953-.554c.344-.327.561-.784.793-1.19l4.022-7.11c.357-.623.534-.937.613-1.267a2.33 2.33 0 0 0 0-1.091c-.078-.328-.257-.64-.609-1.254L17.24 8.05c-.325-.573-.49-.86-.698-.966a.79.79 0 0 0-.715 0c-.208.106-.373.393-.698.966L7.472 21.547c-.322.565-.483.848-.471 1.08a.788.788 0 0 0 .357.616c.196.126.518.126 1.17.126ZM23.903 23.369H19.46c-.656 0-.986 0-1.178-.126a.795.795 0 0 1-.357-.62c-.012-.23.15-.51.475-1.07l2.226-3.821c.325-.561.49-.84.694-.946a.782.782 0 0 1 .71 0c.203.103.361.37.674.898l2.283 3.907c.309.532.466.804.455 1.028a.785.785 0 0 1-.357.62c-.197.13-.526.13-1.182.13Z" fill="#fff"/></svg>
